gama.ui.shared/icons_svg/dark/overlays/small.expand.svg

<?xml version="1.0" encoding="UTF-8" standalone="no"?>
<!DOCTYPE svg PUBLIC "-//W3C//DTD SVG 1.1//EN" "http://www.w3.org/Graphics/SVG/1.1/DTD/svg11.dtd">
<svg xmlns="http://www.w3.org/2000/svg" xmlns:xl="http://www.w3.org/1999/xlink" version="1.1" xmlns:dc="http://purl.org/dc/elements/1.1/" viewBox="-438.2741 -3115.658 16 16" width="16" height="16">
  <defs/>
  <g id="SOURCES" stroke-opacity="1" fill="none" stroke="none" fill-opacity="1" stroke-dasharray="none">
    <title>SOURCES</title>
    <g id="SOURCES_Dark">
      <title>Dark</title>
      <g id="Graphic_11189"/>
      <g id="Graphic_11188">
        <path d="M -430.1529 -3110.828 C -430.3329 -3111.038 -430.3129 -3111.358 -430.1029 -3111.538 C -429.8929 -3111.718 -429.5729 -3111.698 -429.3929 -3111.488 L -426.3929 -3107.988 C -426.2329 -3107.798 -426.2329 -3107.528 -426.3929 -3107.338 L -429.3929 -3103.838 C -429.5729 -3103.628 -429.8929 -3103.608 -430.1029 -3103.788 C -430.3129 -3103.968 -430.3329 -3104.288 -430.1529 -3104.498 L -427.4329 -3107.668 Z M -434.1529 -3110.828 C -434.3329 -3111.038 -434.3129 -3111.358 -434.1029 -3111.538 C -433.8929 -3111.718 -433.5729 -3111.698 -433.3929 -3111.488 L -430.3929 -3107.988 C -430.2329 -3107.798 -430.2329 -3107.528 -430.3929 -3107.338 L -433.3929 -3103.828 C -433.5729 -3103.618 -433.8929 -3103.598 -434.1029 -3103.778 C -434.3129 -3103.958 -434.3329 -3104.278 -434.1529 -3104.488 L -431.4329 -3107.658 Z" fill="white"/>
      </g>
      <g id="Graphic_11185">
        <path d="M -428.9925 -3110.828 C -429.1725 -3111.038 -429.1525 -3111.358 -428.9425 -3111.538 C -428.7325 -3111.718 -428.4125 -3111.698 -428.2325 -3111.488 L -425.2325 -3107.988 C -425.0725 -3107.798 -425.0725 -3107.528 -425.2325 -3107.338 L -428.2325 -3103.838 C -428.4125 -3103.628 -428.7325 -3103.608 -428.9425 -3103.788 C -429.1525 -3103.968 -429.1725 -3104.288 -428.9925 -3104.498 L -426.2725 -3107.668 Z M -432.9925 -3110.828 C -433.1725 -3111.038 -433.1525 -3111.358 -432.9425 -3111.538 C -432.7325 -3111.718 -432.4125 -3111.698 -432.2325 -3111.488 L -429.2325 -3107.988 C -429.0725 -3107.798 -429.0725 -3107.528 -429.2325 -3107.338 L -432.2325 -3103.828 C -432.4125 -3103.618 -432.7325 -3103.598 -432.9425 -3103.778 C -433.1525 -3103.958 -433.1725 -3104.278 -432.9925 -3104.488 L -430.2725 -3107.658 Z" fill="#999"/>
      </g>
    </g>
  </g>
</svg>

<svg height="16" viewBox="-438.274 -3115.658 16 16" width="16" xmlns="http://www.w3.org/2000/svg"><g fill="none"><path d="m-430.1529-3110.828c-.18-.21-.16-.53.05-.71s.53-.16.71.05l3 3.5c.16.19.16.46 0 .65l-3 3.5c-.18.21-.5.23-.71.05s-.23-.5-.05-.71l2.72-3.17zm-4 0c-.18-.21-.16-.53.05-.71s.53-.16.71.05l3 3.5c.16.19.16.46 0 .65l-3 3.51c-.18.21-.5.23-.71.05s-.23-.5-.05-.71l2.72-3.17z" fill="#fff"/><path d="m-428.9925-3110.828c-.18-.21-.16-.53.05-.71s.53-.16.71.05l3 3.5c.16.19.16.46 0 .65l-3 3.5c-.18.21-.5.23-.71.05s-.23-.5-.05-.71l2.72-3.17zm-4 0c-.18-.21-.16-.53.05-.71s.53-.16.71.05l3 3.5c.16.19.16.46 0 .65l-3 3.51c-.18.21-.5.23-.71.05s-.23-.5-.05-.71l2.72-3.17z" fill="#999"/></g></svg>
